X:1
T:In Furore Iustissimae Irae
C:A. Vivaldi
%%score { ( 1 4 ) | ( 2 3 ) }
L:1/8
Q:1/4=144
M:3/4
K:Eb
V:1 treble nm="Piano" snm="Pno."
V:4 treble 
V:2 bass 
V:3 bass 
V:1
"^Allegro""^A"!f! .cC CC CC | (cB/A/ G/A/G/F/ E/F/E/D/) | [Cc][Cc] [Cc][Cc] [Cc][Cc] | .gG GG GG | %4
 (gf/e/ d/e/d/c/ =B/c/B/A/) | [Gg][Gg] [Gg][Gg] [Gg][Gg] |"^A2" !>![Aa-]6 | %7
 a/g/f/e/ d/e/d/c/ =B/c/B/=A/ | G2 !>![gg']4- | [gg']/f/e/d/ c/d/c/B/ =A/B/A/G/ | F2 !>![ff']4- | %11
 [ff']e/d/ c/=B/c/B/ =A/G/_A/F/ | ([Ee][cc'] [ee'][cc'] [gg'][cc'] | %13
 [=B=b][ff'] [aa'][ff'] [dd'][Bb] | [G,G][ff'] [aa'][ff'] [dd'][=B=b]) | %15
 ([G,G][Gg] [Gg][gg'] [G,G][Gg] | G,/G/g/g'/ g/G/g/g'/ g/G/G, | [G,G]6) | %18
 (cB/A/ G/A/G/F/ E/F/E/D/ | C>e f2 d2 |"^B1" G3) (=A/=B/ c/d/e/f/ | gf/e/ dc BA | %22
 G3) (=A/=B/ c/d/e/f/ | ge dc gc | ag fe dc | c2 =B2)[K:bass] (=B,,/C,/B,,/=A,,/) | %26
[K:treble] [dd']2 [ee']2 [ff']2 | [ee']3 [dd'] [cc']2 | [dd']2 [cc']2 [=B=b]2 | %29
 [cc'][ee'] [gg']2 z/ [ce]/[df]/[eg]/ | [dd'][^f^f'] [gg']2 z/ [Bd]/[ce]/[df]/ | %31
 [cc'][=e=e'] [ff']2 z/ [Ac]/[Bd]/[ce]/ | [Bb][cc'] [ee']2 z ([B,B] | c/d/c/B/ A/B/A/G/ F/G/F/E/ | %34
 Bc/d/ eB GE | Bc/d/ eB GE | [Bb]3) c/d/ [Ee]f/g/ | ag/e/ Md4 | [Ee]6 | (ed/c/ B/c/B/A/ G/A/G/F/) | %40
 [Ee][Ee] [Ee][Ee] [Ee][Ee] | (BA/G/ F/G/F/E/ D/E/D/C/) | [B,B][B,B] [B,B][B,B] [B,B][B,B] | %43
 [A,A]6 | (gf/e/ gf/e/ gd |"^B2" e2) (gf ed | eB GE GB | e2) (gf ed | eB GE GB | e2) (ef ge | %50
 dc B2) (D/E/D/C/) | [dd']2 [ee']2 [ff']2 | [gg']>[ff'] ([ee']2[K:bass] G,/A,/G,/F,/) | %53
[K:treble] [Bb]2 [ee']2 [gg']2 | [ff']2 ([Bb]2[K:bass] D,/E,/D,/C,/) |[K:treble] =Bd fa gf | %56
 e2 z e/f/ g/e/d/c/ | d2 z d/e/ f/d/c/B/ | B2 z c/d/ e/c/B/A/ | (GG/=A/ =BB/c/ !>![Dd]2) | %60
 z =B/c/ dd/e/ !>![Ff]2 | z d/e/ ff/g/ !>![Aa]2- | [Aa]g/f/ gf/e/ fe/d/ | ed/c/ dc/=B/ cB/=A/ | %64
 (G/=A/G/A/ =B/c/B/c/ d/e/d/e/ | !>![Ff]2) z (e/d/ ed/c/ | gc Mc4 | c2) z (c/d/ e/c/e/f/ | gc Md4 | %69
 c6) | dG GG GG | [DG=B]2 [DGB]2 [DGB]2 | cc cc cc | !>![Aa-]6 | a/g/f/e/ d/e/d/c/ =B/c/B/=A/ | %75
 G2 !>![gg']4- | [gg']/f/e/d/ c/d/c/B/ =A/B/A/G/ | F2 !>![ff']4- | [ff']e/d/ c/=B/c/B/ =A/G/_A/F/ | %79
 Ec Ec G=B |[Q:1/4=80] !fermata!c6 :|[Q:1/4=144]"^Allegro"!mf! (d2 B2) .G2 | (e2 d2) z2 | %83
 e2 .d.c .B.=A | (B2 G2) z2 | !tenuto!G2 !tenuto!c2 !tenuto!e2 | %86
 !tenuto!^F2 !tenuto!=A2 !tenuto!c2 | !tenuto!B2 !tenuto!c2 !tenuto!=A2 | (GB cB =AG | %89
 !tenuto!=A2) !tenuto!d2 (!tenuto!A2 | G=A Bc de | ^FG =A2) z2 | %92
 !tenuto!c2 !tenuto!B2 !tenuto!=A2 | !tenuto!B2 !tenuto!G2 !tenuto!g2 | %94
 !tenuto!B2 !tenuto!c2 (!tenuto!=A2 | G=A Bc de | =AG AB cd | G^F G=A Bc) | %98
 !tenuto!^F2 !tenuto!=A2 !tenuto!c2 | !tenuto!B2 !tenuto!d2 !tenuto!g2 | G2 M=A4 | !fermata!G6 |] %102
V:2
 .C,2 [C,,C,]2 [C,,C,]2 |!ped! (C,B,,/A,,/ G,,/A,,/G,,/F,,/ E,,/F,,/E,,/D,,/)!ped-up! | %2
 .C,2 C,2 C,2 | .G,2 [G,,G,]2 [G,,G,]2 |!ped! (G,F,/E,/ D,/E,/D,/C,/ =B,,/C,/B,,/A,,/)!ped-up! | %5
 G,,2 G,,2 G,,2 |!ped! (E2 z2 [A,E]2 | [F,A,D]6)!ped-up!!ped!!ped-up! |!ped! (D2 z2 [G,D]2 | %9
 [E,G,C]6)!ped-up!!ped!!ped-up! |!ped! (C2 z2 [F,C]2 | [D,F,=B,]6)!ped-up!!ped!!ped-up! | %12
!ped! ([C,E,C]2 [C,,C,][C,C] [G,,G,][E,,E,]!ped-up! | %13
!ped! [=B,,D,=B,]2 [G,,,G,,][A,,A,] [F,,F,][D,,D,]!ped-up! | %14
!ped! [G,,,G,,]2 [G,,,G,,][A,,A,] [F,,F,][D,,D,])!ped-up! |!ped! [G,,,G,,]2 [G,,,G,,]2 [G,,,G,,]2 | %16
 [G,,,G,,]2 [G,,,G,,]2 [G,,,G,,]2 | [G,,,G,,]6!ped-up! |!ped! (CB,/A,/ G,/A,/G,/F,/ E,/F,/E,/D,/ | %19
 C,>E, [F,D]2!ped-up! [D,G,=B,]2 |!ped! [C,E,G,C]6) | .[G,,C,E,G,]2!ped-up!!ped! z4 | %22
 .[C,E,G,C]2!ped-up!!ped! z4 | .[E,G,CE]2!ped-up!!ped! z4 | .[A,CFA]2!ped-up!!ped! z4!ped-up! | %25
!ped! (G,F,/E,/ D,/E,/D,/C,/ =B,,,/C,,/B,,,/=A,,,/)!ped-up! | .G,,2 G,,2 G,,2 | %27
[K:treble]!ped! [CE]3 F [CEG]2!ped-up! |!ped! [F,DF]2 [E,CE]2 [D,=B,D]2!ped-up! | %29
 [E,-CE-]4 [E,A,E]D, |[K:bass]!ped! [=B,,=B,][B,,B,] [_B,,_B,][B,,B,] [B,,B,]!ped-up![B,,B,] | %31
!ped! [=A,,=A,][A,,A,] [_A,,_A,][A,,A,] [A,,A,]!ped-up![A,,A,] | %32
!ped! [G,,G,][G,,G,] [G,,G,][G,,G,]!ped-up!!ped! ([E,E]2 | %33
 C/D/C/B,/ A,/B,/A,/G,/ F,/G,/F,/E,/!ped-up! |!ped! B,C/D/ EB, G,E, | B,C/D/ EB, G,E, | %36
 B,2)!ped-up!!ped! A,G, F,E, | [D,A,][E,G,]!ped-up! [E,F,]2 [B,,D,B,]2 | .E,2 E,2 E,2 | %39
!ped! (E,D,/C,/ B,,/C,/B,,/A,,/ G,,/A,,/G,,/F,,/)!ped-up! | .E,2 E,2 E,2 | %41
!ped! (B,,A,,/G,,/ F,,/G,,/F,,/E,,/ D,,/E,,/D,,/C,,/)!ped-up! | .B,,2 B,,2 B,,2 | %43
!ped! ([D,,D,]2 [F,,F,]2 [B,,D,A,]2)!ped-up! |!ped! ([B,,E,G,]2 [G,,E,G,]2 [B,,D,F,]2!ped-up! | %45
 .[B,,E,G,B,]2)!ped! z4 | .[B,,E,G,B,]2!ped-up!!ped! z4 | .[B,,E,G,B,]2!ped-up!!ped! z4 | %48
 .[B,,E,G,B,]2!ped-up!!ped! z4 | .[B,,E,G,B,]2!ped-up!!ped! z4!ped-up! | %50
!ped! (B,,A,,/G,,/ F,,/G,,/F,,/E,,/ D,,/E,,/D,,/C,,/)!ped-up! | .B,,2 B,,2 B,,2 | %52
!ped! (E,D,/C,/ B,,/C,/B,,/A,,/ G,,/A,,/G,,/F,,/)!ped-up! | .E,2 E,2 E,2 | %54
!ped! (B,,A,,/G,,/ F,,/G,,/F,,/E,,/ D,,/E,,/D,,/C,,/)!ped-up! |!ped! .=B,,2 B,,2 B,,2 | %56
 .C,2!ped-up!!ped! C2 C2 | .=B,,2!ped-up!!ped! B,,2 B,,2 | .=A,,2!ped-up!!ped! _A,,2 F,,2!ped-up! | %59
!ped! .G,,2 G,,2 G,,2!ped-up! |!ped! G,,2 G,,2 G,,2!ped-up! |!ped! G,,2 G,,2 G,,2 | %62
 G,,2!ped-up!!ped! G,,2 G,,2 | G,,2 G,,2 G,,2!ped-up! |!ped! G,,2 G,,2 G,,2!ped-up! | %65
 .[G,,,G,,].[=A,,,=A,,] .[=B,,,=B,,].[G,,,G,,] .[C,,C,].[D,,D,] | %66
 .[E,,E,].[C,,C,] .[G,,G,].[F,,F,] .[G,,G,].[G,,,G,,] | %67
 .[C,,C,]2 z!ped! (C,/D,/ E,/C,/E,/F,/)!ped-up! | %68
 .[E,,E,].[C,,C,]!ped! ([G,,G,]2 [G,,,G,,]2)!ped-up! | %69
!ped! (C,/E,/G,/E,/ C,/E,/G,/E,/ C,/E,/G,/E,/) | %70
 .G,!ped-up![G,,,G,,] [G,,,G,,][G,,,G,,] [G,,,G,,][G,,,G,,] |!ped! .G,G G,G G,G | %72
 .C!ped-up![C,,C,] [C,,C,][C,,C,] [C,,C,][C,,C,] |!ped! (E2 z2 [A,E]2 | %74
 [F,A,D]6)!ped-up!!ped!!ped-up! |!ped! (D2 z2 [G,D]2 | [E,G,C]6)!ped-up!!ped!!ped-up! | %77
!ped! (C2 z2 [F,C]2 | [D,F,=B,]6)!ped-up!!ped!!ped-up! |!ped! [E,C]2 [E,C]2 [=B,,D,G,]2!ped-up! | %80
!ped! !fermata![C,E,G,C]6!ped-up! :|!ped! (D,2 B,,2)!ped-up! .G,,2 |!ped! (E,2 D,2)!ped-up! z2 | %83
 E,2 .D,.C, .B,,.=A,, |!ped! (B,,2 G,,2)!ped-up! z2 |!ped! !tenuto!G,,2 !tenuto!C,2 !tenuto!E,2 | %86
 !tenuto!^F,,2 !tenuto!=A,,2 !tenuto!C,2 | !tenuto!B,,2 !tenuto!C,2 !tenuto!=A,,2!ped-up! | %88
!ped! (G,,B,, C,B,, =A,,G,, | !tenuto!=A,,2) !tenuto!D,2!ped-up!!ped! (!tenuto!A,,2 | %90
 G,,=A,, B,,C, D,E, | ^F,,G,, =A,,2)!ped-up! z2 |!ped! !tenuto!C,2 !tenuto!B,,2 !tenuto!=A,,2 | %93
 !tenuto!B,,2 !tenuto!G,,2 !tenuto!G,2 | !tenuto!B,,2 !tenuto!C,2!ped-up!!ped! (!tenuto!=A,,2 | %95
 G,,=A,, B,,C, D,E, | =A,,G,, A,,B,, C,D, | G,,^F,, G,,=A,, B,,C,)!ped-up! | %98
!ped! !tenuto!^F,,2 !tenuto!=A,,2 !tenuto!C,2 | !tenuto!B,,2 !tenuto!D,2 !tenuto!G,2!ped-up! | %100
 G,,2 M=A,,4 | !fermata!G,,6 |] %102
V:3
 x6 | x6 | C,,C,, C,,C,, C,,C,, | x6 | x6 | G,,,G,,, G,,,G,,, G,,,G,,, | %6
 (CB,/A,/ G,/F,/E,/D,/ C,C) | z .[=B,,,=B,,] [B,,=B,][B,,B,] [B,,B,][B,,B,] | %8
 (B,A,/G,/ F,/E,/D,/C,/ B,,B,) | z .[=A,,,=A,,] [A,,=A,][A,,A,] [A,,A,][A,,A,] | %10
 (A,G,/F,/ E,/D,/C,/B,,/ A,,A, | .G,)[G,,G,] [G,,G,][G,,G,] [G,,G,][G,,G,] | x6 | x6 | x6 | x6 | %16
 x6 | x6 | x6 | x6 | x6 | x6 | x6 | x6 | x6 | x6 | G,,G,,, G,,,G,,, G,,,G,,, |[K:treble] x6 | x6 | %29
 x6 |[K:bass] D6 | C6 | B,6 | x6 | x6 | x6 | B,A,/G,/ F,E, D,C, | x6 | E,E,, E,,E,, E,,E,, | x6 | %40
 E,,E,, E,,E,, E,,E,, | x6 | B,,,B,,, B,,,B,,, B,,,B,,, | x6 | x6 | x6 | x6 | x6 | x6 | x6 | x6 | %51
 B,,B,,, B,,,B,,, B,,,B,,, | x6 | E,E,, E,,E,, E,,E,, | x6 | =B,,=B,,, B,,,B,,, B,,,B,,, | %56
 C,C,, C,C, C,C, | =B,,=B,,, B,,,B,,, B,,,B,,, | =A,,=A,,, _A,,,A,,, F,,,F,,, | %59
 G,,G,,, G,,,G,,, G,,,G,,, | G,,,G,,, G,,,G,,, G,,,G,,, | G,,,G,,, G,,,G,,, G,,,G,,, | %62
 G,,,G,,, G,,,G,,, G,,,G,,, | G,,,G,,, G,,,G,,, G,,,G,,, | G,,,G,,, G,,,G,,, G,,,G,,, | x6 | x6 | %67
 x6 | x6 | .CC CC CC | x6 | (D,/G,/=B,/G,/ D,/G,/B,/G,/ D,/G,/B,/G,/) | x6 | %73
 (CB,/A,/ G,/F,/E,/D,/ C,C) | z .[=B,,,=B,,] [B,,=B,][B,,B,] [B,,B,][B,,B,] | %75
 (B,A,/G,/ F,/E,/D,/C,/ B,,B,) | z .[=A,,,=A,,] [A,,=A,][A,,A,] [A,,A,][A,,A,] | %77
 (A,G,/F,/ E,/D,/C,/B,,/ A,,A, | .G,)[G,,G,] [G,,G,][G,,G,] [G,,G,][G,,G,] | .C,C, G,G, G,,G,, | %80
 x6 :| x6 | x6 | x6 | x6 | x6 | x6 | x6 | x6 | x6 | x6 | x6 | x6 | x6 | x6 | x6 | x6 | x6 | x6 | %99
 x6 | x6 | x6 |] %102
V:4
 x6 | x6 | x6 | x6 | x6 | x6 | x6 | x6 | x6 | x6 | x6 | x6 | x6 | x6 | x6 | x6 | x6 | x6 | x6 | %19
 x6 | c3 x3 | x6 | x6 | x6 | x6 | x4[K:bass] x2 |[K:treble] x6 | x6 | x6 | x6 | x6 | x6 | x6 | x6 | %34
 x6 | x6 | x6 | x6 | x6 | x6 | x6 | x6 | x6 | x6 | x6 | x6 | x6 | x6 | x6 | x6 | x6 | x6 | %52
 x4[K:bass] x2 |[K:treble] x6 | x4[K:bass] x2 |[K:treble] x6 | x6 | x6 | x6 | x6 | x6 | x6 | x6 | %63
 x6 | x6 | x6 | x6 | x6 | x6 | [EGc]2 [EGc]2 [EGc]2 | [DG=B]2 z4 | x6 | [EGc]2 z4 | x6 | x6 | x6 | %76
 x6 | x6 | x6 | x6 | x6 :| x6 | x6 | x6 | x6 | x6 | x6 | x6 | x6 | x6 | x6 | x6 | x6 | x6 | x6 | %95
 x6 | x6 | x6 | x6 | x6 | x6 | x6 |] %102

